svgs/sharp-regular/landmark-flag.svg

<svg xmlns="http://www.w3.org/2000/svg" viewBox="0 0 512 512"><!--! Font Awesome Pro 6.6.0 by @fontawesome - https://fontawesome.com License - https://fontawesome.com/license (Commercial License) Copyright 2024 Fonticons, Inc. --><path d="M272 0L240 0l0 128L48 128l-24 0 0 48 24 0 416 0 24 0 0-48-24 0-192 0 0-32 96 0 0-96L272 0zM112 208l-48 0 0 176-8 0-24 0 0 48 24 0 400 0 24 0 0-48-24 0-8 0 0-176-48 0 0 176-64 0 0-176-48 0 0 176-64 0 0-176-48 0 0 176-64 0 0-176zM0 464l0 48 24 0 464 0 24 0 0-48-24 0L24 464 0 464z"/></svg>

<svg xmlns="http://www.w3.org/2000/svg" viewBox="0 0 512 512"><!--! Font Awesome Pro 6.4.0 by @fontawesome - https://fontawesome.com License - https://fontawesome.com/license (Commercial License) Copyright 2023 Fonticons, Inc. --><path d="M272 0H240V128H48 24v48H48 464h24V128H464 272V96h96V0H272zM112 208H64V384H56 32v48H56 456h24V384H456h-8V208H400V384H336V208H288V384H224V208H176V384H112V208zM0 464v48H24 488h24V464H488 24 0z"/></svg>
